; generated by PrusaSlicer 2.2.0+ on 2020-09-20 at 19:08:37 UTC

; 

; external perimeters extrusion width = 0.45mm
; perimeters extrusion width = 0.45mm
; infill extrusion width = 0.45mm
; solid infill extrusion width = 0.45mm
; top infill extrusion width = 0.40mm
; first layer extrusion width = 0.42mm

M73 P0 R139
M73 Q0 S140
M201 X1000 Y1000 Z200 E5000 ; sets maximum accelerations, mm/sec^2
M203 X200 Y200 Z12 E120 ; sets maximum feedrates, mm/sec
M204 P1250 R1250 T1250 ; sets acceleration (P, T) and retract acceleration (R), mm/sec^2
M205 X8.00 Y8.00 Z0.40 E4.50 ; sets the jerk limits, mm/sec
M205 S0 T0 ; sets the minimum extruding and travel feed rate, mm/sec
M107
M862.3 P "MK3S" ; printer model check
M862.1 P0.4 ; nozzle diameter check
M115 U3.9.0 ; tell printer latest fw version
G90 ; use absolute coordinates
M83 ; extruder relative mode
M104 S215 ; set extruder temp
M140 S60 ; set bed temp
M190 S60 ; wait for bed temp
M109 S215 ; wait for extruder temp
G28 W ; home all without mesh bed level
G80 ; mesh bed leveling
G1 Y-3.0 F1000.0 ; go outside print area
G92 E0.0
G1 X60.0 E9.0 F1000.0 ; intro line
M73 Q0 S140
M73 P0 R139
G1 X100.0 E12.5 F1000.0 ; intro line
G92 E0.0
M221 S95

; Don't change E values below. Excessive value can damage the printer.
M907 E430 ; set extruder motor current
G21 ; set units to millimeters
G90 ; use absolute coordinates
M83 ; use relative distances for extrusion
M900 K0.06 ; Filament gcode LA 1.5
M900 K30 ; Filament gcode LA 1.0
;BEFORE_LAYER_CHANGE
G92 E0.0
;0.2


G1 E-0.80000 F2100.00000
G1 Z0.600 F10800.000
;AFTER_LAYER_CHANGE
;0.2
G1 X125.159 Y101.119
G1 Z0.200
G1 E0.80000 F2100.00000
M204 S1000
G1 F1200.000
G1 X125.628 Y100.727 E0.01917
G1 X126.186 Y100.467 E0.01929
G1 X126.792 Y100.359 E0.01929
G1 X130.475 Y100.221 E0.11556
G1 X154.492 Y100.221 E0.75304
G1 X163.196 Y100.407 E0.27298
G1 X163.884 Y100.670 E0.02308
G1 X164.459 Y101.130 E0.02308
G1 X164.865 Y101.743 E0.02308
G1 X165.064 Y102.452 E0.02308
G1 X165.073 Y130.531 E0.88040
G1 X161.314 Y151.778 E0.67654
G1 X161.113 Y152.527 E0.02432
G1 X160.804 Y153.206 E0.02337
G1 X160.177 Y154.079 E0.03370
G1 X159.696 Y154.544 E0.02099
G1 X159.090 Y154.971 E0.02325
G1 X158.147 Y155.394 E0.03240
G1 X157.505 Y155.556 E0.02075
G1 X156.824 Y155.623 E0.02147
G1 X127.655 Y155.625 E0.91458
G1 X126.694 Y155.513 E0.03032
G1 X126.076 Y155.336 E0.02015
G1 X125.430 Y155.039 E0.02230
G1 X124.554 Y154.410 E0.03382
G1 X124.086 Y153.925 E0.02110
G1 X123.653 Y153.305 E0.02373
G1 X123.234 Y152.356 E0.03252
G1 X123.075 Y151.714 E0.02075
G1 X123.010 Y150.964 E0.02361
G1 X123.011 Y134.348 E0.52098
G1 X124.530 Y102.604 E0.99644
G1 X124.613 Y102.098 E0.01609
G1 X124.803 Y101.621 E0.01609
G1 X125.124 Y101.168 E0.01741
G1 F8640.000
G1 X125.628 Y100.727 E-0.15464
G1 X126.186 Y100.467 E-0.14208
G1 X126.792 Y100.359 E-0.14208
G1 X128.182 Y100.307 E-0.32120
G1 E-0.04000 F2100.00000
G1 Z0.800 F10800.000
G1 X131.703 Y98.019
G1 Z0.200
G1 E0.80000 F2100.00000
G1 F1200.000
G1 X130.512 Y97.888 E0.03758
G1 X129.613 Y97.964 E0.02830
G1 X129.370 Y98.021 E0.00783
G1 X126.308 Y98.031 E0.09601
G1 X124.990 Y98.389 E0.04283
G1 X124.162 Y98.864 E0.02991
G1 X123.224 Y99.758 E0.04064
G1 X122.702 Y100.521 E0.02898
G1 X122.199 Y102.135 E0.05299
G1 X122.190 Y130.619 E0.89310
G1 X121.925 Y131.028 E0.01528
G1 X121.444 Y132.125 E0.03755
G1 X121.173 Y133.170 E0.03387
G1 X121.065 Y134.223 E0.03319
G1 X121.060 Y151.052 E0.52766
G1 X121.148 Y152.010 E0.03016
G1 X121.368 Y152.942 E0.03000
G1 X121.991 Y154.325 E0.04758
G1 X122.818 Y155.438 E0.04346
G1 X123.607 Y156.163 E0.03360
G1 X124.493 Y156.750 E0.03332
G1 X125.711 Y157.272 E0.04154
G1 X126.601 Y157.484 E0.02870
G1 X127.532 Y157.573 E0.02931
G1 X156.873 Y157.573 E0.91997
G1 X157.809 Y157.483 E0.02948
G1 X158.705 Y157.268 E0.02891
G1 X160.047 Y156.670 E0.04607
G1 X160.905 Y156.075 E0.03273
G1 X161.674 Y155.335 E0.03345
G1 X162.523 Y154.131 E0.04619
G1 X162.932 Y153.229 E0.03106
G1 X163.203 Y152.283 E0.03084
G1 X163.339 Y151.095 E0.03750
G1 X163.342 Y141.395 E0.30414
G1 F8640.000
G1 X163.341 Y144.686 E-0.76000
G1 E-0.04000 F2100.00000
G1 Z0.800 F10800.000
G1 X163.343 Y139.226
G1 Z0.200
G1 E0.80000 F2100.00000
G1 F1200.000
G1 X163.345 Y134.996 E0.13263
G1 X163.743 Y134.965 E0.01252
G1 X164.119 Y134.840 E0.01243
G1 X164.526 Y134.705 F10800.000
G1 F1200.000
G1 X164.655 Y134.662 E0.00426
G1 X165.535 Y134.132 E0.03222
G1 X166.573 Y133.071 E0.04652
G1 X167.112 Y132.091 E0.03507
G1 X167.412 Y130.888 E0.03887
G1 X167.417 Y102.207 E0.89926
G1 X166.966 Y100.641 E0.05112
G1 X166.342 Y99.707 E0.03520
G1 X165.467 Y98.882 E0.03772
G1 X164.533 Y98.352 E0.03368
G1 X163.478 Y98.057 E0.03434
G1 X155.743 Y98.020 E0.24252
G1 X154.712 Y97.888 E0.03261
G1 X153.649 Y97.960 E0.03338
G1 X153.382 Y98.019 E0.00860
G1 X131.703 Y98.019 E0.67971
G1 F8640.000
G1 X134.995 Y98.019 E-0.76000
G1 E-0.04000 F2100.00000
G1 Z0.800 F10800.000
G1 X130.490 Y98.264
G1 Z0.200
G1 E0.80000 F2100.00000
G1 F1200.000
G1 X129.662 Y98.338 E0.02606
G1 X129.417 Y98.398 E0.00791
G1 X126.334 Y98.408 E0.09666
G1 X125.154 Y98.729 E0.03833
G1 X124.404 Y99.154 E0.02704
G1 X123.521 Y99.990 E0.03812
G1 X123.053 Y100.662 E0.02567
G1 X122.567 Y102.220 E0.05117
G1 X122.567 Y130.732 E0.89398
G1 X122.264 Y131.195 E0.01736
G1 X121.805 Y132.235 E0.03564
G1 X121.547 Y133.224 E0.03204
G1 X121.442 Y134.233 E0.03182
G1 X121.437 Y151.028 E0.52657
G1 X121.518 Y151.937 E0.02863
G1 X121.731 Y152.837 E0.02899
G1 X122.326 Y154.151 E0.04524
G1 X123.087 Y155.173 E0.03994
G1 X123.827 Y155.857 E0.03162
G1 X124.687 Y156.426 E0.03231
G1 X125.814 Y156.909 E0.03844
G1 X126.675 Y157.114 E0.02777
G1 X127.558 Y157.197 E0.02779
G1 X156.864 Y157.196 E0.91886
G1 X157.759 Y157.109 E0.02820
G1 X158.600 Y156.906 E0.02713
G1 X159.877 Y156.334 E0.04387
G1 X160.677 Y155.774 E0.03062
G1 X161.377 Y155.103 E0.03042
G1 X162.187 Y153.958 E0.04396
G1 X162.574 Y153.111 E0.02921
G1 X162.830 Y152.224 E0.02893
G1 X162.962 Y151.084 E0.03599
G1 X162.965 Y143.531 E0.23681
G1 F8640.000
G1 X162.963 Y146.823 E-0.76000
G1 E-0.04000 F2100.00000
G1 Z0.800 F10800.000
G1 X162.965 Y141.362
G1 Z0.200
G1 E0.80000 F2100.00000
G1 F1200.000
G1 X162.968 Y134.632 E0.21102
G1 X163.651 Y134.598 E0.02144
G1 X164.194 Y134.418 E0.01794
G1 X164.605 Y134.256 F10800.000
G1 F1200.000
G1 X165.318 Y133.823 E0.02617
G1 X166.284 Y132.827 E0.04349
G1 X166.752 Y131.976 E0.03044
G1 X167.040 Y130.819 E0.03738
G1 X167.040 Y102.234 E0.89628
G1 X166.635 Y100.825 E0.04597
G1 X166.066 Y99.965 E0.03231
G1 X165.259 Y99.197 E0.03494
G1 X164.406 Y98.708 E0.03083
G1 X163.450 Y98.434 E0.03119
G1 X155.717 Y98.397 E0.24245
G1 X154.718 Y98.265 E0.03160
G1 X153.691 Y98.335 E0.03228
G1 X153.426 Y98.397 E0.00853
G1 X131.682 Y98.397 E0.68175
G1 X130.490 Y98.264 E0.03763
G1 F8640.000
G1 X131.682 Y98.397 E-0.27711
G1 X133.774 Y98.397 E-0.48289
G1 E-0.04000 F2100.00000
G1 Z0.800 F10800.000
G1 X155.692 Y98.774
G1 Z0.200
G1 E0.80000 F2100.00000
G1 F1200.000
G1 X154.688 Y98.642 E0.03174
G1 X153.735 Y98.710 E0.02996
G1 X153.472 Y98.774 E0.00848
G1 X131.661 Y98.774 E0.68388
G1 X130.504 Y98.642 E0.03651
G1 X129.711 Y98.712 E0.02495
G1 X129.465 Y98.775 E0.00795
G1 X126.361 Y98.785 E0.09734
G1 X125.279 Y99.086 E0.03520
G1 X124.612 Y99.469 E0.02411
G1 X123.796 Y100.249 E0.03539
G1 X123.380 Y100.852 E0.02299
G1 X122.944 Y102.248 E0.04586
G1 X122.944 Y130.846 E0.89666
G1 X122.602 Y131.363 E0.01945
G1 X122.166 Y132.346 E0.03372
G1 X121.920 Y133.278 E0.03021
G1 X121.819 Y134.243 E0.03044
G1 X121.814 Y151.019 E0.52599
G1 X121.892 Y151.889 E0.02740
G1 X122.093 Y152.732 E0.02715
G1 X122.641 Y153.943 E0.04168
G1 X123.356 Y154.909 E0.03768
G1 X124.049 Y155.552 E0.02965
G1 X124.852 Y156.086 E0.03024
G1 X125.918 Y156.546 E0.03639
G1 X126.724 Y156.740 E0.02600
G1 X127.567 Y156.820 E0.02653
G1 X156.837 Y156.819 E0.91775
G1 X157.683 Y156.739 E0.02666
G1 X158.494 Y156.543 E0.02615
G1 X159.676 Y156.014 E0.04060
G1 X160.427 Y155.492 E0.02867
G1 X161.103 Y154.843 E0.02938
G1 X161.852 Y153.785 E0.04064
G1 X162.215 Y152.992 E0.02735
G1 X162.463 Y152.135 E0.02799
G1 X162.585 Y151.073 E0.03350
G1 X162.587 Y145.668 E0.16949
G1 F8640.000
G1 X162.586 Y148.959 E-0.76000
G1 E-0.04000 F2100.00000
G1 Z0.800 F10800.000
G1 X162.588 Y143.498
G1 Z0.200
G1 E0.80000 F2100.00000
G1 F1200.000
G1 X162.591 Y134.265 E0.28951
G1 X163.559 Y134.231 E0.03036
G1 X164.268 Y133.995 E0.02345
G1 X164.691 Y133.769 F10800.000
G1 F1200.000
G1 X165.066 Y133.542 E0.01374
G1 X165.968 Y132.621 E0.04041
G1 X166.393 Y131.859 E0.02736
G1 X166.663 Y130.795 E0.03439
G1 X166.663 Y102.261 E0.89467
G1 X166.282 Y100.960 E0.04252
G1 X165.766 Y100.194 E0.02894
G1 X165.016 Y99.487 E0.03232
G1 X164.278 Y99.063 E0.02670
G1 X163.421 Y98.811 E0.02802
G1 X155.692 Y98.774 E0.24235
G1 F8640.000
G1 X158.983 Y98.790 E-0.76000
G1 E-0.04000 F2100.00000
G1 Z0.800 F10800.000
G1 X130.481 Y99.019
G1 Z0.200
G1 E0.80000 F2100.00000
G1 F1200.000
G1 X129.763 Y99.086 E0.02259
G1 X129.516 Y99.152 E0.00802
G1 X126.388 Y99.162 E0.09810
G1 X125.444 Y99.425 E0.03071
G1 X124.855 Y99.759 E0.02124
G1 X124.093 Y100.482 E0.03294
G1 X123.730 Y100.996 E0.01971
G1 X123.321 Y102.278 E0.04220
G1 X123.321 Y123.922 E0.67862
G1 F8640.000
G1 X123.321 Y120.630 E-0.76000
G1 E-0.04000 F2100.00000
G1 Z0.800 F10800.000
G1 X122.959 Y131.503
G1 Z0.200
G1 E0.80000 F2100.00000
G1 F1200.000
G1 X122.526 Y132.457 E0.03285
G1 X122.288 Y133.360 E0.02927
G1 X122.196 Y134.253 E0.02816
G1 X122.191 Y151.011 E0.52543
G1 X122.262 Y151.815 E0.02532
G1 X122.456 Y152.626 E0.02614
G1 X122.976 Y153.768 E0.03935
G1 X123.626 Y154.644 E0.03419
G1 X124.295 Y155.265 E0.02862
G1 X125.046 Y155.763 E0.02826
G1 X126.022 Y156.183 E0.03331
G1 X126.799 Y156.370 E0.02507
G1 X127.592 Y156.443 E0.02498
G1 X156.828 Y156.442 E0.91667
G1 X157.608 Y156.369 E0.02456
G1 X158.388 Y156.181 E0.02517
G1 X159.504 Y155.678 E0.03838
G1 X160.198 Y155.191 E0.02657
G1 X160.806 Y154.609 E0.02638
G1 X161.517 Y153.611 E0.03844
G1 X161.858 Y152.873 E0.02549
G1 X162.091 Y152.075 E0.02605
G1 X162.208 Y151.062 E0.03197
G1 X162.209 Y147.804 E0.10216
G1 F8640.000
G1 X162.208 Y151.062 E-0.75236
G1 X162.204 Y151.095 E-0.00764
G1 E-0.04000 F2100.00000
G1 Z0.800 F10800.000
G1 X162.210 Y145.634
G1 Z0.200
G1 E0.80000 F2100.00000
G1 F1200.000
G1 X162.214 Y134.306 E0.35520
G1 X162.176 Y133.896 E0.01290
G1 X163.469 Y133.864 E0.04055
G1 X164.202 Y133.624 E0.02419
G1 X164.349 Y133.537 E0.00537
G1 X164.777 Y133.282 F10800.000
G1 F1200.000
G1 X165.653 Y132.412 E0.03867
G1 X166.034 Y131.739 E0.02428
G1 X166.286 Y130.771 E0.03135
G1 X166.286 Y102.288 E0.89306
G1 X165.952 Y101.145 E0.03735
G1 X165.490 Y100.452 E0.02610
G1 X164.807 Y99.801 E0.02960
G1 X164.147 Y99.417 E0.02395
G1 X163.391 Y99.188 E0.02476
G1 X155.665 Y99.151 E0.24225
G1 X154.695 Y99.019 E0.03069
G1 X153.779 Y99.085 E0.02878
G1 X153.520 Y99.151 E0.00839
G1 X131.639 Y99.151 E0.68607
G1 X130.481 Y99.019 E0.03655
G1 F8640.000
G1 X131.639 Y99.151 E-0.26919
G1 X133.765 Y99.151 E-0.49080
G1 E-0.04000 F2100.00000
G1 Z0.800 F10800.000
G1 X131.618 Y99.528
G1 Z0.200
G1 E0.80000 F2100.00000
G1 F1200.000
G1 X153.571 Y99.528 E0.68834
G1 X153.826 Y99.459 E0.00825
G1 X154.702 Y99.397 E0.02754
G1 X155.637 Y99.528 E0.02962
G1 X163.360 Y99.565 E0.24214
G1 X164.013 Y99.770 E0.02146
G1 X164.563 Y100.089 E0.01994
G1 X165.214 Y100.710 E0.02821
G1 X165.622 Y101.328 E0.02321
G1 X165.909 Y102.315 E0.03222
G1 X165.909 Y130.746 E0.89144
G1 X165.677 Y131.616 E0.02825
G1 X165.339 Y132.202 E0.02118
M73 Q0 S139
G1 X164.889 Y132.652 E0.01998
G1 X164.435 Y133.053 F10800.000
G1 F1200.000
G1 X164.066 Y133.272 E0.01347
G1 X163.379 Y133.497 E0.02263
G1 X161.761 Y133.525 E0.05075
G1 X161.837 Y134.315 E0.02490
G1 X161.832 Y147.771 E0.42189
M73 P0 R138
G1 F8640.000
G1 X161.833 Y144.479 E-0.76000
G1 E-0.04000 F2100.00000
G1 Z0.800 F10800.000
G1 X161.831 Y149.940
G1 Z0.200
G1 E0.80000 F2100.00000
G1 F1200.000
G1 X161.831 Y151.051 E0.03483
G1 X161.718 Y152.015 E0.03043
G1 X161.500 Y152.752 E0.02409
G1 X161.183 Y153.435 E0.02364
G1 X160.510 Y154.375 E0.03622
G1 X159.949 Y154.908 E0.02428
G1 X159.332 Y155.342 E0.02364
G1 X158.282 Y155.819 E0.03618
G1 X157.559 Y155.995 E0.02333
G1 X156.819 Y156.065 E0.02329
G1 X127.617 Y156.067 E0.91560
G1 X126.873 Y156.000 E0.02342
G1 X126.126 Y155.820 E0.02412
G1 X125.240 Y155.439 E0.03022
G1 X124.516 Y154.959 E0.02724
G1 X123.896 Y154.380 E0.02661
G1 X123.310 Y153.593 E0.03076
G1 X122.818 Y152.519 E0.03703
G1 X122.636 Y151.768 E0.02425
G1 X122.568 Y151.003 E0.02408
G1 X122.573 Y134.263 E0.52485
G1 X122.662 Y133.414 E0.02677
G1 X122.910 Y132.517 E0.02918
G1 X123.331 Y131.621 F10800.000
G1 F1200.000
G1 X123.753 Y130.996 E0.02367
G1 X123.699 Y130.752 E0.00783
G1 X123.699 Y123.931 E0.21388
G1 F8640.000
G1 X123.699 Y127.222 E-0.76000
G1 E-0.04000 F2100.00000
G1 Z0.800 F10800.000
G1 X123.699 Y116.040
G1 Z0.200
G1 E0.80000 F2100.00000
G1 F1200.000
G1 X123.699 Y102.309 E0.43055
G1 X124.079 Y101.143 E0.03845
G1 X124.386 Y100.719 E0.01641
G1 X125.095 Y100.050 E0.03058
G1 X125.607 Y99.766 E0.01836
G1 X126.415 Y99.539 E0.02629
G1 X129.570 Y99.529 E0.09892
G1 X129.819 Y99.459 E0.00810
G1 X130.459 Y99.396 E0.02017
G1 X131.618 Y99.528 E0.03658
G1 F8640.000
G1 X130.459 Y99.396 E-0.26938
G1 X129.819 Y99.459 E-0.14853
G1 X129.570 Y99.529 E-0.05968
G1 X128.346 Y99.533 E-0.28242
G1 E-0.04000 F2100.00000
G1 Z0.800 F10800.000
G1 X130.475 Y99.773
G1 Z0.200
G1 E0.80000 F2100.00000
G1 F1200.000
G1 X131.595 Y99.905 E0.03536
G1 X153.626 Y99.905 E0.69075
G1 X153.875 Y99.834 E0.00813
G1 X154.670 Y99.773 E0.02499
G1 X155.610 Y99.905 E0.02978
G1 X163.274 Y99.933 E0.24030
G1 X163.879 Y100.123 E0.01987
G1 X164.351 Y100.402 E0.01720
G1 X164.938 Y100.967 E0.02555
G1 X165.269 Y101.464 E0.01871
G1 X165.532 Y102.343 E0.02876
G1 X165.532 Y130.720 E0.88974
G1 X165.320 Y131.491 E0.02508
G1 X165.002 Y132.014 E0.01921
G1 X164.536 Y132.480 F10800.000
G1 F1200.000
G1 X164.351 Y132.665 E0.00821
G1 X163.927 Y132.921 E0.01553
G1 X163.290 Y133.129 E0.02102
G1 X161.290 Y133.152 E0.06272
G1 X161.383 Y133.535 E0.01236
G1 X161.460 Y134.324 E0.02487
G1 X161.454 Y149.907 E0.48858
G1 F8640.000
G1 X161.455 Y146.616 E-0.76000
G1 E-0.04000 F2100.00000
G1 Z0.800 F10800.000
G1 X123.283 Y132.607
G1 Z0.200
G1 E0.80000 F2100.00000
G1 F1200.000
G1 X123.613 Y131.872 E0.02526
G1 X124.163 Y131.064 E0.03062
G1 X124.076 Y130.725 E0.01098
G1 X124.076 Y116.049 E0.46016
G1 F8640.000
G1 X124.076 Y119.341 E-0.76000
G1 E-0.04000 F2100.00000
G1 Z0.800 F10800.000
G1 X124.076 Y108.159
G1 Z0.200
G1 E0.80000 F2100.00000
G1 F1200.000
G1 X124.076 Y102.338 E0.18249
G1 X124.402 Y101.338 E0.03298
G1 X124.660 Y100.979 E0.01387
G1 X125.302 Y100.366 E0.02784
G1 X125.735 Y100.121 E0.01557
G1 X126.443 Y99.916 E0.02312
G1 X129.625 Y99.906 E0.09978
G1 X129.875 Y99.833 E0.00814
G1 X130.475 Y99.773 E0.01893
G1 F8640.000
G1 X129.875 Y99.833 E-0.13941
G1 X129.625 Y99.906 E-0.05994
G1 X127.197 Y99.914 E-0.56065
G1 E-0.04000 F2100.00000
G1 Z0.800 F10800.000
G1 X164.649 Y131.841
G1 Z0.200
G1 E0.80000 F2100.00000
G1 F1200.000
G1 X164.134 Y132.356 E0.02285
G1 X163.788 Y132.570 E0.01274
G1 X163.201 Y132.761 E0.01935
G1 X160.802 Y132.776 E0.07524
G1 X161.009 Y133.587 E0.02625
G1 X161.082 Y134.334 E0.02351
G1 X161.078 Y151.009 E0.52284
G1 X160.985 Y151.836 E0.02608
G1 X160.803 Y152.462 E0.02045
G1 X160.530 Y153.057 E0.02054
G1 X159.963 Y153.855 E0.03070
G1 X159.490 Y154.309 E0.02054
G1 X158.956 Y154.688 E0.02054
G1 X158.067 Y155.095 E0.03065
G1 X157.434 Y155.251 E0.02046
G1 X156.784 Y155.312 E0.02044
G1 X127.651 Y155.313 E0.91348
G1 X126.997 Y155.256 E0.02058
G1 X126.336 Y155.095 E0.02133
G1 X125.602 Y154.777 E0.02508
G1 X124.961 Y154.350 E0.02413
G1 X124.438 Y153.855 E0.02260
G1 X123.959 Y153.209 E0.02521
G1 X123.542 Y152.305 E0.03121
G1 X123.380 Y151.644 E0.02134
G1 X123.322 Y150.986 E0.02071
G1 X123.326 Y134.301 E0.52314
G1 X123.399 Y133.576 E0.02286
G1 X123.588 Y132.848 E0.02357
G1 X123.937 Y132.065 E0.02688
G1 X124.354 Y131.435 E0.02370
G1 X124.589 Y131.175 E0.01099
G1 X124.453 Y130.697 E0.01559
G1 X124.453 Y108.168 E0.70638
G1 F8640.000
G1 X124.453 Y111.459 E-0.76000
G1 E-0.04000 F2100.00000
G1 Z0.800 F10800.000
